src/scalable/mimetypes/text-plain.svg

<?xml version="1.0" encoding="UTF-8" standalone="no"?>
<svg
   xmlns:dc="http://purl.org/dc/elements/1.1/"
   xmlns:cc="http://creativecommons.org/ns#"
   xmlns:rdf="http://www.w3.org/1999/02/22-rdf-syntax-ns#"
   xmlns:svg="http://www.w3.org/2000/svg"
   xmlns="http://www.w3.org/2000/svg"
   xmlns:xlink="http://www.w3.org/1999/xlink"
   xmlns:sodipodi="http://sodipodi.sourceforge.net/DTD/sodipodi-0.dtd"
   xmlns:inkscape="http://www.inkscape.org/namespaces/inkscape"
   width="48px"
   height="48px"
   viewBox="0 0 48 48"
   version="1.1"
   id="svg21"
   sodipodi:docname="text-plain.svg"
   inkscape:version="0.92.2 2405546, 2018-03-11">
  <metadata
     id="metadata25">
    <rdf:RDF>
      <cc:Work
         rdf:about="">
        <dc:format>image/svg+xml</dc:format>
        <dc:type
           rdf:resource="http://purl.org/dc/dcmitype/StillImage" />
        <dc:title>application-rtf</dc:title>
      </cc:Work>
    </rdf:RDF>
  </metadata>
  <sodipodi:namedview
     pagecolor="#ffffff"
     bordercolor="#666666"
     borderopacity="1"
     objecttolerance="10"
     gridtolerance="10"
     guidetolerance="10"
     inkscape:pageopacity="0"
     inkscape:pageshadow="2"
     inkscape:window-width="1920"
     inkscape:window-height="1051"
     id="namedview23"
     showgrid="false"
     inkscape:zoom="3.4766083"
     inkscape:cx="95.326752"
     inkscape:cy="48.402422"
     inkscape:window-x="0"
     inkscape:window-y="29"
     inkscape:window-maximized="1"
     inkscape:current-layer="svg21" />
  <!-- Generator: Sketch 41.2 (35397) - http://www.bohemiancoding.com/sketch -->
  <title
     id="title2">application-rtf</title>
  <desc
     id="desc4">Created with Sketch.</desc>
  <g
     id="g829">
    <rect
       rx="2"
       ry="1.9047618"
       y="4"
       x="6"
       height="40"
       width="36"
       id="rect834"
       style="opacity:1;fill:#f2f2f2;fill-opacity:1;stroke:none;stroke-width:0.92582005;stroke-linecap:round;stroke-linejoin:round;stroke-miterlimit:4;stroke-dasharray:none;stroke-opacity:0.05882353;paint-order:markers stroke fill" />
    <path
       inkscape:connector-curvature="0"
       id="rect866"
       d="M 42,17.242188 A 40,40 0 0 1 23.494141,44 H 40 c 1.108,0 2,-0.849059 2,-1.904297 z"
       style="opacity:0.15;fill:url(#linearGradient877);fill-opacity:1;stroke:none;stroke-width:0.92582005;stroke-linecap:round;stroke-linejoin:round;stroke-miterlimit:4;stroke-dasharray:none;stroke-opacity:0.05882353;paint-order:markers stroke fill" />
  </g>
  <defs
     id="defs11">
    <linearGradient
       x1="90.7002767%"
       y1="6.56534831%"
       x2="35.3271484%"
       y2="64.1438802%"
       id="linearGradient-1">
      <stop
         stop-color="#93DEF2"
         offset="0%"
         id="stop6" />
      <stop
         stop-color="#5ABADF"
         offset="100%"
         id="stop8" />
    </linearGradient>
    <linearGradient
       inkscape:collect="always"
       xlink:href="#linearGradient875"
       id="linearGradient877"
       x1="32.74707"
       y1="44"
       x2="32.74707"
       y2="17.242188"
       gradientUnits="userSpaceOnUse" />
    <linearGradient
       inkscape:collect="always"
       id="linearGradient875">
      <stop
         style="stop-color:#000000;stop-opacity:1;"
         offset="0"
         id="stop871" />
      <stop
         style="stop-color:#000000;stop-opacity:0;"
         offset="1"
         id="stop873" />
    </linearGradient>
  </defs>
  <g
     id="Page-1"
     stroke="none"
     stroke-width="1"
     fill="none"
     fill-rule="evenodd"
     style="fill:#999999">
    <g
       id="application-rtf"
       style="fill:#999999">
      <rect
         id="Rectangle-272"
         fill="#FFFFFF"
         x="12"
         y="26"
         width="24"
         height="2"
         rx="1"
         style="fill:#999999" />
      <rect
         id="rect16"
         fill="#FFFFFF"
         x="12"
         y="30"
         width="24"
         height="2"
         rx="1"
         style="fill:#999999" />
      <path
         d="M19.9765625,21.1894531 L19.6347656,20.2910156 L16.7246094,20.2910156 L16.3828125,21.2089844 C16.2493483,21.5670591 16.1354171,21.8087559 16.0410156,21.934082 C15.9466141,22.0594082 15.7919933,22.1220703 15.5771484,22.1220703 C15.3948559,22.1220703 15.2337247,22.0553392 15.09375,21.921875 C14.9537753,21.7884108 14.8837891,21.6370451 14.8837891,21.4677734 C14.8837891,21.3701167 14.9000649,21.2692062 14.9326172,21.1650391 C14.9651694,21.0608719 15.0188798,20.9160166 15.09375,20.7304688 L16.9248047,16.0820312 C16.9768883,15.948567 17.0395504,15.7882496 17.112793,15.6010742 C17.1860355,15.4138988 17.2641597,15.2584642 17.347168,15.1347656 C17.4301762,15.0110671 17.5392246,14.9109704 17.6743164,14.8344727 C17.8094082,14.7579749 17.976236,14.7197266 18.1748047,14.7197266 C18.3766286,14.7197266 18.545084,14.7579749 18.6801758,14.8344727 C18.8152676,14.9109704 18.924316,15.0094395 19.0073242,15.1298828 C19.0903324,15.2503261 19.1603187,15.3797194 19.2172852,15.5180664 C19.2742516,15.6564135 19.3466792,15.8411447 19.4345703,16.0722656 L21.3046875,20.6914062 C21.4511726,21.0429705 21.5244141,21.2985018 21.5244141,21.4580078 C21.5244141,21.6240243 21.4552416,21.7762037 21.3168945,21.9145508 C21.1785475,22.0528978 21.0117197,22.1220703 20.8164062,22.1220703 C20.7024734,22.1220703 20.6048181,22.1017255 20.5234375,22.0610352 C20.4420569,22.0203448 20.3736982,21.9650069 20.3183594,21.8950195 C20.2630206,21.8250322 20.2036136,21.7176114 20.1401367,21.5727539 C20.0766598,21.4278964 20.0221356,21.3001308 19.9765625,21.1894531 Z M17.1054688,19.2021484 L19.2441406,19.2021484 L18.1650391,16.2480469 L17.1054688,19.2021484 Z M23.7265625,15.4814453 L23.7265625,17.5175781 C23.9772148,17.2571602 24.2327461,17.0577806 24.4931641,16.9194336 C24.753582,16.7810865 25.0758444,16.7119141 25.4599609,16.7119141 C25.9026715,16.7119141 26.2908512,16.8168935 26.6245117,17.0268555 C26.9581722,17.2368175 27.2169587,17.5411764 27.4008789,17.9399414 C27.5847991,18.3387064 27.6767578,18.8115207 27.6767578,19.3583984 C27.6767578,19.7620463 27.6254888,20.1323225 27.5229492,20.4692383 C27.4204096,20.806154 27.2714854,21.0983061 27.0761719,21.3457031 C26.8808584,21.5931002 26.6440444,21.7843418 26.3657227,21.9194336 C26.087401,22.0545254 25.7806006,22.1220703 25.4453125,22.1220703 C25.2402333,22.1220703 25.0473642,22.0976565 24.8666992,22.0488281 C24.6860343,21.9999998 24.5322272,21.93571 24.4052734,21.855957 C24.2783197,21.776204 24.1700851,21.6940108 24.0805664,21.609375 C23.9910477,21.5247392 23.8730476,21.3977873 23.7265625,21.2285156 L23.7265625,21.3603516 C23.7265625,21.6110039 23.6663417,21.8006178 23.5458984,21.9291992 C23.4254551,22.0577806 23.2724619,22.1220703 23.0869141,22.1220703 C22.898111,22.1220703 22.7475592,22.0577806 22.6352539,21.9291992 C22.5229487,21.8006178 22.4667969,21.6110039 22.4667969,21.3603516 L22.4667969,15.5400391 C22.4667969,15.2698554 22.5213211,15.0655931 22.6303711,14.9272461 C22.7394211,14.788899 22.8916006,14.7197266 23.0869141,14.7197266 C23.2919932,14.7197266 23.4498692,14.7856439 23.5605469,14.9174805 C23.6712245,15.0493171 23.7265625,15.2373035 23.7265625,15.4814453 Z M23.7900391,19.4414062 C23.7900391,19.9720079 23.9112944,20.3797186 24.1538086,20.6645508 C24.3963228,20.9493829 24.7145163,21.0917969 25.1083984,21.0917969 C25.4436866,21.0917969 25.7325834,20.9461278 25.9750977,20.6547852 C26.2176119,20.3634426 26.3388672,19.9459663 26.3388672,19.4023438 C26.3388672,19.0507795 26.288412,18.7480481 26.1875,18.4941406 C26.086588,18.2402331 25.9433603,18.0441088 25.7578125,17.9057617 C25.5722647,17.7674147 25.3557955,17.6982422 25.1083984,17.6982422 C24.8544909,17.6982422 24.6282562,17.7674147 24.4296875,17.9057617 C24.2311188,18.0441088 24.0748704,18.2443021 23.9609375,18.5063477 C23.8470046,18.7683932 23.7900391,19.0800763 23.7900391,19.4414062 Z M33.5263672,20.4716797 C33.5263672,20.6376961 33.4767258,20.8151032 33.3774414,21.0039062 C33.2781571,21.1927093 33.1267914,21.3725577 32.9233398,21.543457 C32.7198883,21.7143563 32.4635432,21.8518875 32.1542969,21.9560547 C31.8450505,22.0602219 31.4967467,22.1123047 31.109375,22.1123047 C30.2858032,22.1123047 29.642906,21.8722355 29.1806641,21.3920898 C28.7184222,20.9119442 28.4873047,20.2682332 28.4873047,19.4609375 C28.4873047,18.9140598 28.5930979,18.4306662 28.8046875,18.0107422 C29.0162771,17.5908182 29.3222636,17.2661144 29.7226562,17.0366211 C30.1230489,16.8071278 30.6015597,16.6923828 31.1582031,16.6923828 C31.5032569,16.6923828 31.8198228,16.742838 32.1079102,16.84375 C32.3959975,16.944662 32.6401357,17.074869 32.840332,17.234375 C33.0405283,17.393881 33.1935216,17.5639639 33.2993164,17.7446289 C33.4051112,17.9252939 33.4580078,18.0937492 33.4580078,18.25 C33.4580078,18.409506 33.3986009,18.5445958 33.2797852,18.6552734 C33.1609695,18.7659511 33.0169279,18.8212891 32.8476562,18.8212891 C32.7369786,18.8212891 32.6450199,18.7928063 32.5717773,18.7358398 C32.4985348,18.6788734 32.4163416,18.5869147 32.3251953,18.4599609 C32.1624341,18.2125639 31.9923511,18.0270188 31.8149414,17.9033203 C31.6375317,17.7796218 31.4121107,17.7177734 31.1386719,17.7177734 C30.7447897,17.7177734 30.4274101,17.8715805 30.1865234,18.1791992 C29.9456368,18.4868179 29.8251953,18.9075494 29.8251953,19.4414062 C29.8251953,19.6920585 29.8561195,19.9223622 29.9179688,20.1323242 C29.979818,20.3422862 30.0693354,20.5213209 30.1865234,20.6694336 C30.3037115,20.8175463 30.4453117,20.9298499 30.6113281,21.0063477 C30.7773446,21.0828454 30.9596344,21.1210938 31.1582031,21.1210938 C31.4251315,21.1210938 31.6538076,21.0592454 31.8442383,20.9355469 C32.0346689,20.8118483 32.2031243,20.6230481 32.3496094,20.3691406 C32.43099,20.2194003 32.5188797,20.102214 32.6132812,20.0175781 C32.7076828,19.9329423 32.8232415,19.890625 32.9599609,19.890625 C33.1227222,19.890625 33.257812,19.9524733 33.3652344,20.0761719 C33.4726568,20.1998704 33.5263672,20.331705 33.5263672,20.4716797 Z"
         id="ABC"
         fill="#FFFFFF"
         style="fill:#999999" />
    </g>
  </g>
</svg>

<?xml version="1.0" encoding="UTF-8" standalone="no"?>
<svg
   xmlns:dc="http://purl.org/dc/elements/1.1/"
   xmlns:cc="http://creativecommons.org/ns#"
   xmlns:rdf="http://www.w3.org/1999/02/22-rdf-syntax-ns#"
   xmlns:svg="http://www.w3.org/2000/svg"
   xmlns="http://www.w3.org/2000/svg"
   xmlns:xlink="http://www.w3.org/1999/xlink"
   xmlns:sodipodi="http://sodipodi.sourceforge.net/DTD/sodipodi-0.dtd"
   xmlns:inkscape="http://www.inkscape.org/namespaces/inkscape"
   width="48px"
   height="48px"
   viewBox="0 0 48 48"
   version="1.1"
   id="svg21"
   sodipodi:docname="text-sqml.svg"
   inkscape:version="0.92.2 2405546, 2018-03-11">
  <metadata
     id="metadata25">
    <rdf:RDF>
      <cc:Work
         rdf:about="">
        <dc:format>image/svg+xml</dc:format>
        <dc:type
           rdf:resource="http://purl.org/dc/dcmitype/StillImage" />
        <dc:title>application-rtf</dc:title>
      </cc:Work>
    </rdf:RDF>
  </metadata>
  <sodipodi:namedview
     pagecolor="#ffffff"
     bordercolor="#666666"
     borderopacity="1"
     objecttolerance="10"
     gridtolerance="10"
     guidetolerance="10"
     inkscape:pageopacity="0"
     inkscape:pageshadow="2"
     inkscape:window-width="1920"
     inkscape:window-height="1026"
     id="namedview23"
     showgrid="false"
     inkscape:zoom="13.906433"
     inkscape:cx="21.376856"
     inkscape:cy="28.274269"
     inkscape:window-x="0"
     inkscape:window-y="28"
     inkscape:window-maximized="1"
     inkscape:current-layer="svg21" />
  <!-- Generator: Sketch 41.2 (35397) - http://www.bohemiancoding.com/sketch -->
  <title
     id="title2">application-rtf</title>
  <desc
     id="desc4">Created with Sketch.</desc>
  <rect
     style="opacity:1;fill:#f2f2f2;fill-opacity:1;stroke:none;stroke-width:0.92582005;stroke-linecap:round;stroke-linejoin:round;stroke-miterlimit:4;stroke-dasharray:none;stroke-opacity:0.05882353;paint-order:markers stroke fill"
     id="rect834"
     width="36"
     height="40"
     x="6"
     y="4"
     ry="1.9047618"
     rx="2" />
  <path
     style="opacity:0.15;fill:url(#linearGradient877);fill-opacity:1;stroke:none;stroke-width:0.92582005;stroke-linecap:round;stroke-linejoin:round;stroke-miterlimit:4;stroke-dasharray:none;stroke-opacity:0.05882353;paint-order:markers stroke fill"
     d="M 42,17.242188 A 40,40 0 0 1 23.494141,44 H 40 c 1.108,0 2,-0.849059 2,-1.904297 z"
     id="rect866"
     inkscape:connector-curvature="0" />
  <defs
     id="defs11">
    <linearGradient
       inkscape:collect="always"
       xlink:href="#linearGradient875"
       id="linearGradient877"
       x1="32.74707"
       y1="44"
       x2="32.74707"
       y2="17.242188"
       gradientUnits="userSpaceOnUse" />
    <linearGradient
       inkscape:collect="always"
       id="linearGradient875">
      <stop
         style="stop-color:#000000;stop-opacity:1;"
         offset="0"
         id="stop871" />
      <stop
         style="stop-color:#000000;stop-opacity:0;"
         offset="1"
         id="stop873" />
    </linearGradient>
  </defs>
  <rect
     id="Rectangle-272"
     x="12"
     y="26"
     width="24"
     height="2"
     rx="1"
     style="fill:#999999;fill-rule:evenodd;stroke:none;stroke-width:1" />
  <rect
     id="rect16"
     x="12"
     y="30"
     width="24"
     height="2"
     rx="1"
     style="fill:#999999;fill-rule:evenodd;stroke:none;stroke-width:1" />
  <path
     d="m 19.976562,21.189453 -0.341796,-0.898437 h -2.910157 l -0.341797,0.917968 c -0.133464,0.358075 -0.247395,0.599772 -0.341796,0.725098 -0.0944,0.125326 -0.249023,0.187988 -0.463868,0.187988 -0.182292,0 -0.343423,-0.06673 -0.483398,-0.200195 -0.139975,-0.133464 -0.209961,-0.28483 -0.209961,-0.454102 0,-0.09766 0.01628,-0.198567 0.04883,-0.302734 0.03255,-0.104167 0.08626,-0.249022 0.161133,-0.43457 l 1.831055,-4.648438 c 0.05208,-0.133464 0.114745,-0.293781 0.187988,-0.480957 0.07324,-0.187175 0.151367,-0.34261 0.234375,-0.466308 0.08301,-0.123699 0.192057,-0.223796 0.327148,-0.300293 0.135092,-0.0765 0.30192,-0.114746 0.500489,-0.114746 0.201824,0 0.370279,0.03825 0.505371,0.114746 0.135092,0.0765 0.24414,0.174966 0.327148,0.29541 0.08301,0.120443 0.152995,0.249836 0.209961,0.388183 0.05697,0.138347 0.129394,0.323079 0.217285,0.5542 l 1.870117,4.61914 c 0.146486,0.351564 0.219727,0.607096 0.219727,0.766602 0,0.166016 -0.06917,0.318196 -0.20752,0.456543 -0.138347,0.138347 -0.305174,0.207519 -0.500488,0.207519 -0.113933,0 -0.211588,-0.02035 -0.292969,-0.06104 -0.08138,-0.04069 -0.149739,-0.09603 -0.205078,-0.166016 -0.05534,-0.06999 -0.114745,-0.177408 -0.178222,-0.322265 -0.06348,-0.144858 -0.118001,-0.272623 -0.163575,-0.383301 z m -2.871093,-1.987305 h 2.138672 l -1.079102,-2.954101 z m 6.621093,-3.720703 v 2.036133 c 0.250653,-0.260418 0.506184,-0.459797 0.766602,-0.598144 0.260418,-0.138348 0.58268,-0.20752 0.966797,-0.20752 0.44271,0 0.83089,0.104979 1.164551,0.314941 0.33366,0.209962 0.592447,0.514321 0.776367,0.913086 0.18392,0.398765 0.275879,0.87158 0.275879,1.418457 0,0.403648 -0.05127,0.773924 -0.153809,1.11084 -0.102539,0.336916 -0.251464,0.629068 -0.446777,0.876465 -0.195314,0.247397 -0.432128,0.438639 -0.710449,0.573731 -0.278322,0.135091 -0.585122,0.202636 -0.920411,0.202636 -0.205079,0 -0.397948,-0.02441 -0.578613,-0.07324 C 24.686034,22 24.532227,21.93571 24.405273,21.855957 c -0.126953,-0.07975 -0.235188,-0.161946 -0.324707,-0.246582 -0.08952,-0.08464 -0.207518,-0.211588 -0.354004,-0.380859 v 0.131836 c 0,0.250652 -0.06022,0.440266 -0.180664,0.568847 -0.120443,0.128582 -0.273436,0.192871 -0.458984,0.192871 -0.188803,0 -0.339355,-0.06429 -0.45166,-0.192871 -0.112305,-0.128581 -0.168457,-0.318195 -0.168457,-0.568847 v -5.820313 c 0,-0.270184 0.05452,-0.474446 0.163574,-0.612793 0.10905,-0.138347 0.26123,-0.207519 0.456543,-0.207519 0.205079,0 0.362955,0.06592 0.473633,0.197754 0.110677,0.131836 0.166015,0.319822 0.166015,0.563964 z m 0.06348,3.959961 c 0,0.530602 0.121255,0.938313 0.36377,1.223145 0.242514,0.284832 0.560707,0.427246 0.954589,0.427246 0.335289,0 0.624185,-0.145669 0.8667,-0.437012 0.242514,-0.291342 0.363769,-0.708819 0.363769,-1.252441 0,-0.351565 -0.05045,-0.654296 -0.151367,-0.908203 -0.100912,-0.253908 -0.24414,-0.450032 -0.429688,-0.588379 -0.185547,-0.138347 -0.402017,-0.20752 -0.649414,-0.20752 -0.253907,0 -0.480142,0.06917 -0.678711,0.20752 -0.198568,0.138347 -0.354817,0.33854 -0.46875,0.600586 -0.113932,0.262045 -0.170898,0.573728 -0.170898,0.935058 z m 9.736328,1.030274 c 0,0.166016 -0.04964,0.343423 -0.148926,0.532226 -0.09928,0.188803 -0.25065,0.368652 -0.454101,0.539551 -0.203452,0.170899 -0.459797,0.30843 -0.769043,0.412598 -0.309247,0.104167 -0.65755,0.15625 -1.044922,0.15625 -0.823572,0 -1.466469,-0.24007 -1.928711,-0.720215 -0.462242,-0.480146 -0.693359,-1.123857 -0.693359,-1.931153 0,-0.546877 0.105793,-1.030271 0.317382,-1.450195 0.21159,-0.419924 0.517577,-0.744628 0.917969,-0.974121 0.400393,-0.229493 0.878904,-0.344238 1.435547,-0.344238 0.345054,0 0.66162,0.05045 0.949707,0.151367 0.288087,0.100912 0.532226,0.231119 0.732422,0.390625 0.200196,0.159506 0.35319,0.329589 0.458984,0.510254 0.105795,0.180665 0.158692,0.34912 0.158692,0.505371 0,0.159506 -0.05941,0.294596 -0.178223,0.405273 -0.118816,0.110678 -0.262857,0.166016 -0.432129,0.166016 -0.110677,0 -0.202636,-0.02848 -0.275879,-0.08545 -0.07324,-0.05697 -0.155435,-0.148925 -0.246582,-0.275879 -0.162761,-0.247397 -0.332844,-0.432942 -0.510254,-0.556641 -0.177409,-0.123698 -0.40283,-0.185547 -0.676269,-0.185547 -0.393882,0 -0.711262,0.153807 -0.952149,0.461426 -0.240886,0.307619 -0.361328,0.72835 -0.361328,1.262207 0,0.250653 0.03092,0.480956 0.09277,0.690918 0.06185,0.209962 0.151366,0.388997 0.268554,0.53711 0.117188,0.148112 0.258789,0.260416 0.424805,0.336914 0.166017,0.0765 0.348306,0.114746 0.546875,0.114746 0.266928,0 0.495605,-0.06185 0.686035,-0.185547 0.190431,-0.123699 0.358886,-0.312499 0.505371,-0.566406 0.08138,-0.149741 0.169271,-0.266927 0.263672,-0.351563 0.0944,-0.08464 0.209961,-0.126953 0.34668,-0.126953 0.162761,0 0.297851,0.06185 0.405273,0.185547 0.107423,0.123698 0.161133,0.255533 0.161133,0.395508 z"
     id="ABC"
     style="fill:#999999;fill-rule:evenodd;stroke:none;stroke-width:1"
     inkscape:connector-curvature="0" />
</svg>
